X:9
T:Britches Full Of Stitches, The
C:Traditional
R:polka
K:G
M:4/4
L:1/8
|: G>A BG| AG BG| G2 BG| AG E2|
! G>A BG| AG Bd| G>A GE| ED D2:| ! |:
d>e dB| AG AB| d>e dB| AG E2|
! d>e dB| AG AB| G>A GE| ED D2:|
%%footer JamBuddy 2025 - No rights reserved, public domain

